communes/3575.svg

<?xml version="1.0" encoding="UTF-8"?>
<!DOCTYPE svg  PUBLIC '-//W3C//DTD SVG 1.1//EN'  'http://www.w3.org/Graphics/SVG/1.1/DTD/svg11.dtd'>
<svg width="438" height="480" viewBox="21 15 438 480" xmlns="http://www.w3.org/2000/svg">
<metadata>
<rdf:RDF xmlns:dc="http://purl.org/dc/elements/1.1/" xmlns:rdf="http://www.w3.org/1999/02/22-rdf-syntax-ns#">
<rdf:Description dc:date="2006-11-01" dc:format="image/svg+xml" dc:language="de" dc:title="Wappen Laax (CH-GR)">
<dc:creator rdf:resource="http://de.wikipedia.org/wiki/Benutzer:Bernina"/>
</rdf:Description>
</rdf:RDF>
</metadata>
<title>Wappen Laax (CH-GR)</title>
<defs>
<clipPath id="a">
<path d="m360 4140a3240 3240 0 0 0 6480 0v-3870h-6480v3870z"/>
</clipPath>
<style type="text/css"><![CDATA[
  .Rand1 { stroke: #202020; stroke-width:15; }
  .Rand2 { stroke: #202020; stroke-width:30; }
  .Rand3 { stroke: #202020; stroke-width:45; }
  .Rand6 { stroke: #202020; stroke-width:90; }
  .Schwarz { fill: #000000; }
  .Blau { fill: #0000ff; }
  .Silber { fill: #ffffff; }
  ]]></style>
</defs>
<g transform="scale(.066667)" fill="none" fill-rule="evenodd" stroke-miterlimit="10" stroke-width="10">
<g clip-path="url(#a)">
<path class="Blau" d="m-225-225v7650h7650v-7650h-7650z"/>
<path class="Silber Rand2" d="m3060 1620c-180-180-360-360-525-480s-315-180-510-255-435-165-645-225-390-90-484.33-85.67c-94.34 4.34-103 43-91.34 102.34 11.67 59.33 43.67 139.33 54.67 213 11 73.66 1 141 49.33 231.66 48.34 90.67 155 204.67 283.34 396.67 128.33 192 278.33 462 443.33 717s345 495 465 675 180 300 219.67 447.67c39.66 147.66 59 323 78.33 498.33l662 554v-540l810 810v360l540 450v-360c120 180 240 360 300 555s60 405 45 570-45 285-90 375-105 150-90 180 105 30 225-30 270-180 375-315 165-285 180-405-15-210 15-240 120 0 210 0 180-30 285-90 225-150 315-285 150-315 135-360-105 45-195 90-180 45-300 30-270-45-420-120-300-195-390-315-120-240-105-405 75-375 135-585l-720-360-270-540v-990c-120 30-240 60-360 60s-240-30-330-75-150-105-210-165l-90-90z"/>
<path class="Schwarz Rand1" d="m884 824c95.33 85.33 190.67 170.67 328.33 303.33 137.67 132.67 317.67 312.67 437.67 447.67s180 225 210 285 30 90 6 102.33c-24 12.34-72 7-119.67-22-47.66-29-95-81.66-142.33-134.33l-76-202c-59.33-84.67-118.67-169.33-226-297s-262.67-298.33-418-469"/>
<path class="Rand2" d="m2382 3296 678 574"/>
<path class="Rand2" d="m3950 4732 460 398"/>
<path class="Rand2" d="m4318 3466 540 1042"/>
<path class="Rand2" d="m3342 1912 660 946"/>
<path class="Rand2" d="m2818 2528 1994 2550"/>
<path class="Rand2" d="m4692 5474c94.67 2.67 189.33 5.33 266.67-19.67 77.33-25 137.33-77.66 176.33-155 39-77.33 57-179.33 75-281.33"/>
<path class="Rand3" d="m1980 2430c90-30 180-60 270-105s180-105 240-210 90-255 75-390-75-255-75-270 60 75 120 210 120 315 105 435-105 180-180 225-135 75-195.67 94.33c-60.66 19.34-122 28-182 28s-118.66-8.66-177.33-17.33z"/>
<path class="Rand3" d="m1800 2160c60 30 120 60 165 60s75-30 90-90 15-150 0-225-45-135-75-195"/>
<path class="Silber Rand3" d="m2080 1188a180 180 0 0 0-360 0 180 180 0 0 0 360 0z"/>
<path class="Schwarz" d="m1948 1188a54 54 0 0 0-108 0 54 54 0 0 0 108 0z"/>
</g>
<path class="Rand6" d="m360 4140a3240 3240 0 0 0 6480 0v-3870h-6480v3870z"/>
</g>
</svg>

<?xml version="1.0" encoding="iso-8859-1"?>
<!DOCTYPE svg PUBLIC "-//W3C//DTD SVG 1.1//EN" "http://www.w3.org/Graphics/SVG/1.1/DTD/svg11.dtd">
<!-- Auto-generated by fig2svg tool
     Date: Wed Nov  1 17:08:04 2006 -->
<svg xmlns="http://www.w3.org/2000/svg"
     width="438" height="480" viewBox="21 15 438 480">
<metadata>
<rdf:RDF xmlns:rdf="http://www.w3.org/1999/02/22-rdf-syntax-ns#"
         xmlns:dc="http://purl.org/dc/elements/1.1/">
<rdf:Description
 dc:title="Wappen Laax (CH-GR)"
 dc:date="2006-11-01"
 dc:format="image/svg+xml"
 dc:language="de">
<dc:creator rdf:resource="http://de.wikipedia.org/wiki/Benutzer:Bernina" />
</rdf:Description>
</rdf:RDF>
</metadata>
<title>
Wappen Laax (CH-GR)
</title>
<defs>
<clipPath id="clippath">
<path d="M360,4140 A3240,3240 0.0 0 0 6840,4140 L6840,270 L360,270 L360,4140 Z" />
</clipPath>
<style type="text/css">
  <![CDATA[
  .Rand1 { stroke: #202020; stroke-width:15; }
  .Rand2 { stroke: #202020; stroke-width:30; }
  .Rand3 { stroke: #202020; stroke-width:45; }
  .Rand6 { stroke: #202020; stroke-width:90; }
  .Schwarz { fill: #000000; }
  .Blau { fill: #0000ff; }
  .Silber { fill: #ffffff; }
  ]]>
</style>
</defs>
<g stroke="none" stroke-miterlimit="10" stroke-width="10"
   stroke-linecap="butt" stroke-linejoin="miter"
   fill="none" fill-rule="evenodd" transform="scale(0.066667)">
<g clip-path="url(#clippath)">
<path id="feld-1" class="Blau"
      d="M-225,-225 L-225,7425 L7425,7425 L7425,-225 L-225,-225 Z" />
<path id="fisch-1" class="Silber Rand2"
      d="M3060,1620 C2880,1440 2700,1260 2535,1140 C2370,1020 2220,960 2025,885
         C1830,810 1590,720 1380,660 C1170,600 990,570 895.67,574.33
         C801.33,578.67 792.67,617.33 804.33,676.67
         C816,736 848,816 859,889.67 C870,963.33 860,1030.67 908.33,1121.33
         C956.67,1212 1063.33,1326 1191.67,1518
         C1320,1710 1470,1980 1635,2235 C1800,2490 1980,2730 2100,2910
         C2220,3090 2280,3210 2319.67,3357.67
         C2359.33,3505.33 2378.67,3680.67 2398,3856 L3060,4410 L3060,3870
         L3870,4680 L3870,5040 L4410,5490 L4410,5130
         C4530,5310 4650,5490 4710,5685 C4770,5880 4770,6090 4755,6255
         C4740,6420 4710,6540 4665,6630 C4620,6720 4560,6780 4575,6810
         C4590,6840 4680,6840 4800,6780 C4920,6720 5070,6600 5175,6465
         C5280,6330 5340,6180 5355,6060 C5370,5940 5340,5850 5370,5820
         C5400,5790 5490,5820 5580,5820 C5670,5820 5760,5790 5865,5730
         C5970,5670 6090,5580 6180,5445 C6270,5310 6330,5130 6315,5085
         C6300,5040 6210,5130 6120,5175 C6030,5220 5940,5220 5820,5205
         C5700,5190 5550,5160 5400,5085 C5250,5010 5100,4890 5010,4770
         C4920,4650 4890,4530 4905,4365 C4920,4200 4980,3990 5040,3780
         L4320,3420 L4050,2880 L4050,1890 C3930,1920 3810,1950 3690,1950
         C3570,1950 3450,1920 3360,1875 C3270,1830 3210,1770 3150,1710
         L3060,1620 Z" />
<path id="maul-1" class="Schwarz Rand1"
      d="M884,824 C979.33,909.33 1074.67,994.67 1212.33,1127.33
         C1350,1260 1530,1440 1650,1575 C1770,1710 1830,1800 1860,1860
         C1890,1920 1890,1950 1866,1962.33
         C1842,1974.67 1794,1969.33 1746.33,1940.33
         C1698.67,1911.33 1651.33,1858.67 1604,1806 L1528,1604
         C1468.67,1519.33 1409.33,1434.67 1302,1307 C1194.67,1179.33 1039.33,1008.67 884,838" />
<path id="linie-1" class="Rand2" d="M2382,3296 L3060,3870" />
<path id="linie-2" class="Rand2" d="M3950,4732 L4410,5130" />
<path id="linie-3" class="Rand2" d="M4318,3466 L4858,4508" />
<path id="linie-4" class="Rand2" d="M3342,1912 L4002,2858" />
<path id="linie-5" class="Rand2" d="M2818,2528 L4812,5078" />
<path id="linie-6" class="Rand2"
      d="M4692,5474 C4786.67,5476.67 4881.33,5479.33 4958.67,5454.33
         C5036,5429.33 5096,5376.67 5135,5299.33 C5174,5222 5192,5120 5210,5018" />
<path id="liniex-1" class="Rand3"
      d="M1980,2430 C2070,2400 2160,2370 2250,2325
         C2340,2280 2430,2220 2490,2115 C2550,2010 2580,1860 2565,1725
         C2550,1590 2490,1470 2490,1455 C2490,1440 2550,1530 2610,1665
         C2670,1800 2730,1980 2715,2100 C2700,2220 2610,2280 2535,2325
         C2460,2370 2400,2400 2339.33,2419.33
         C2278.67,2438.67 2217.33,2447.33 2157.33,2447.33
         C2097.33,2447.33 2038.67,2438.67 1980,2430 Z" />
<path id="liniex-2" class="Rand3"
      d="M1800,2160 C1860,2190 1920,2220 1965,2220
         C2010,2220 2040,2190 2055,2130 C2070,2070 2070,1980 2055,1905
         C2040,1830 2010,1770 1980,1710" />
<path id="auge-1" class="Silber Rand3"
      d="M2080,1188 A180,180 0.0 0 0 1720,1188 A180,180 0.0 0 0 2080,1188 Z" />
<path id="augei-1" class="Schwarz"
      d="M1948,1188 A54,54 0.0 0 0 1840,1188 A54,54 0.0 0 0 1948,1188 Z" />
</g>
<path id="clip-boundary" class="Rand6"
      d="M360,4140 A3240,3240 0.0 0 0 6840,4140 L6840,270 L360,270 L360,4140 Z" />
</g>
</svg>
